dist/assets/images/icons/hor-btn.svg

<svg width="24" height="24" fill="none" xmlns="http://www.w3.org/2000/svg"><path d="M4 14h4v-4H4v4zm0 5h4v-4H4v4zM4 9h4V5H4v4zm5 5h12v-4H9v4zm0 5h12v-4H9v4zM9 5v4h12V5H9z" fill="#2E2A2B" opacity=".5"/></svg>

<svg width="24" height="24" viewBox="0 0 24 24" fill="none" xmlns="http://www.w3.org/2000/svg">
<g opacity="0.5">
<path d="M4 14H8V10H4V14ZM4 19H8V15H4V19ZM4 9H8V5H4V9ZM9 14H21V10H9V14ZM9 19H21V15H9V19ZM9 5V9H21V5H9Z" fill="#2E2A2B"/>
</g>
</svg>
